X:1
T:Title
%%score { 1 | ( 2 3 ) }
L:1/8
M:4/4
K:Bb
V:1 treble nm="Grand Piano"
V:2 bass 
V:3 bass 
V:1
 z4 z2[Q:1/4=104] F2 | [DB]2 [Fd][DB] A2 cA | [DB]2 [B,D][CE] [DF]3 [DF] | G2 GG [FB]2 [Fc][Fd] | %4
 c6 cd | e2 dc [Fd]2 [Ec][DB] |[M:7/8] c2 B A B3 |[M:1/8] F |[M:4/4] G2 [Ge][Gc] A2 GA | %9
[M:3/4] [DB]6 |[M:1/4] [Fd]2 |[M:4/4] [^Fd]2 [Fd]>[Fd] [Gd]2 [B,DB][B,DB] | %12
 .[D^Fd]2 [DFB][CFA] [B,G]3 [Dd] | [Fc]2 [FA][FA] .[=Ec]2 [CEA][B,EG] | F6 cd | %15
 e2 dc [Fd]2 [Ec][DB] | c2 BA B3 F | G2 [Ge][Gc] A2 GA |[M:3/4] [DB]6 |] %19
V:2
 z4 z2 F,2 | [B,,F,]2 [B,,B,][B,,F,] [F,C]2 [F,A,E][F,CE] | %2
 [B,,B,]2 [B,,F,][B,,F,] [B,,B,]3 [B,,B,] | [E,B,E]2 [E,B,E][E,B,E] [D,B,]2 [C,A,][B,,B,] | %4
 [F,A,F]6 [F,F]-[F,B,F] | [F,CF]2 [F,B,F][F,A,F] [B,,B,]2 [B,,F,][B,,F,] | %6
[M:7/8] [F,A,E]2 [F,CE] [F,CE] [G,B,D]3 |[M:1/8] [D,B,] | %8
[M:4/4] [E,B,E]2 [E,C][E,E] [F,CE]2 [F,CE][F,CE] |[M:3/4] [B,,B,]6 |[M:1/4] [B,,B,]2 | %11
[M:4/4] [D,A,]2 [D,A,]>[D,A,] [G,B,]2 G,G, | z[K:treble] c[K:bass]D,D, G,3 [G,B,] | %13
 [C,A,]2 [C,C][C,C] z[K:treble] B[K:bass]C,C, | [F,A,]6 [F,F]-[F,B,F] | %15
 [F,CF]2 [F,B,F][F,A,F] [B,,B,]2 [B,,F,][B,,F,] | [F,A,E]2 [F,CE][F,CE] [G,B,D]3 [D,B,] | %17
 [E,B,E]2 [E,C][E,E] [F,CE]2 [F,CE][F,CE] |[M:3/4] [B,,B,]6 |] %19
V:3
 x8 | x8 | x8 | x8 | z4 z2 .A,2 | x8 |[M:7/8] x7 |[M:1/8] x |[M:4/4] x8 |[M:3/4] x6 |[M:1/4] x2 | %11
[M:4/4] x8 | D,2[K:treble][K:bass] z2 z4 | z4 [C,G,]2[K:treble][K:bass] z2 | z4 z2 .A,2 | x8 | x8 | %17
 x8 |[M:3/4] x6 |] %19

